X:1
T:An Cailin Rua
Z: id:dc-miscellaneous-11
M:2/4
L:1/8
K:F Major
"Verse" C|C2 CD|F2 FF|G2 DD|DC z2|!
B2 B2|A2 GF|G2 A=B|c2 zc|!
d2 dd|c2 AG|F2 DE|FG AB|!
c2 GG|A2 FF|D2 CB,|C2 z|]!
"Refrain" F/D/|C>D FA|GF DF/D/|C/D/F GA|GF FD|!
C>D FA|GF G/A/c|de/d/ cA|[1 GF D:|[2 G z2|]!
"Extended Refrain" F/D/|C>D FA|GF DF/D/|C/D/F GA|GF FD|!
C>D FA|GF G/A/c|de/d/ cA|[1 GF DF/D/:|[2 G/A/c d|]!
c|d>e fe|dc Ac/A/|d>e fe|dc cA|!
d>e fe|dc Ac/d/|cA F/G/A/G/|FD D:|!

